resources/assets/img/recovery.svg

<svg height="64" viewBox="0 0 230 230" width="64" xmlns="http://www.w3.org/2000/svg"><g fill="none" fill-rule="evenodd"><circle cx="115" cy="115" fill="#00d19a" r="115"/><g transform="translate(66 58)"><path d="m7 53.0002737v58.7175513c0 1.656854 1.34314575 3 3 3h84.9812692c1.6568543 0 3-1.343146 3-3 0-.985411-.4839279-1.907988-1.2946411-2.468148l-84.9812692-58.7175506c-1.3631201-.9418437-3.23166247-.6003317-4.17350618.7627884-.34634223.5012573-.53185272 1.0960873-.53185272 1.7053589z" fill="#a2f5d0"/><path d="m98.3337826 97.1264912v-44.1264912c0-1.6568542-1.3431457-3-3-3-.5302854 0-1.0510956.1405594-1.5093755.4073594l-35.3332919 20.5702278c-1.4318759.8336051-1.9168701 2.6701403-1.083265 4.1020162.230204.3954193.5478046.7329438.928504.9867513l35.3332919 23.5562634c1.3785728.9190769 3.2411862.5465829 4.1602634-.8319904.3285504-.4928101.5038731-1.0718469.5038731-1.6641365z" fill="#a2f5d0"/><path d="m22 15h60c1.6568542 0 3 1.3431458 3 3v29.2288395c0 1.1003311-.6023685 2.1123664-1.5695657 2.6370168l-31.9091115 17.308911c-.9414939.5107079-2.0838511.4807196-2.9972533-.0786817l-28.0908884-17.2038979c-.8903591-.5452888-1.4331811-1.5142666-1.4331811-2.5583351v-29.3338526c0-1.6568542 1.3431458-3 3-3z" fill="#fff"/><rect fill="#00d19a" height="5" rx="2.5" width="23" x="25" y="21"/><g fill="#a2f5d0"><rect height="5" rx="2.5" width="55" x="25" y="30"/><rect height="5" rx="2.5" width="36" x="25" y="39"/></g></g></g></svg>

<?xml version="1.0" encoding="UTF-8" standalone="no"?>
<svg width="64px" height="64px" viewBox="0 0 230 230" version="1.1" xmlns="http://www.w3.org/2000/svg" xmlns:xlink="http://www.w3.org/1999/xlink">
    <!-- Generator: Sketch 48.2 (47327) - http://www.bohemiancoding.com/sketch -->
    <title>Oval</title>
    <desc>Created with Sketch.</desc>
    <defs></defs>
    <g id="Page-1" stroke="none" stroke-width="1" fill="none" fill-rule="evenodd">
        <circle id="Oval" fill="#00D19A" cx="115" cy="115" r="115"></circle>
        <g id="email" transform="translate(66.000000, 58.000000)">
            <path d="M7,53.0002737 L7,111.717825 C7,113.374679 8.34314575,114.717825 10,114.717825 L94.9812692,114.717825 C96.6381235,114.717825 97.9812692,113.374679 97.9812692,111.717825 C97.9812692,110.732414 97.4973413,109.809837 96.6866281,109.249677 L11.7053589,50.5321264 C10.3422388,49.5902827 8.47369643,49.9317947 7.53185272,51.2949148 C7.18551049,51.7961721 7,52.3910021 7,53.0002737 Z" id="Path-2" fill="#A2F5D0"></path>
            <path d="M98.3337826,97.1264912 L98.3337826,53 C98.3337826,51.3431458 96.9906369,50 95.3337826,50 C94.8034972,50 94.282687,50.1405594 93.8244071,50.4073594 L58.4911152,70.9775872 C57.0592393,71.8111923 56.5742451,73.6477275 57.4078502,75.0796034 C57.6380542,75.4750227 57.9556548,75.8125472 58.3363542,76.0663547 L93.6696461,99.6226181 C95.0482189,100.541695 96.9108323,100.169201 97.8299095,98.7906277 C98.1584599,98.2978176 98.3337826,97.7187808 98.3337826,97.1264912 Z" id="Path-3" fill="#A2F5D0"></path>
            <path d="" id="Path-4" stroke="#979797"></path>
            <path d="" id="Path-5" stroke="#979797"></path>
            <path d="M22,15 L82,15 C83.6568542,15 85,16.3431458 85,18 L85,47.2288395 C85,48.3291706 84.3976315,49.3412059 83.4304343,49.8658563 L51.5213228,67.1747673 C50.5798289,67.6854752 49.4374717,67.6554869 48.5240695,67.0960856 L20.4331811,49.8921877 C19.542822,49.3468989 19,48.3779211 19,47.3338526 L19,18 C19,16.3431458 20.3431458,15 22,15 Z" id="Path-6" fill="#FFFFFF"></path>
            <rect id="Rectangle" fill="#00D19A" x="25" y="21" width="23" height="5" rx="2.5"></rect>
            <rect id="Rectangle" fill="#A2F5D0" x="25" y="30" width="55" height="5" rx="2.5"></rect>
            <rect id="Rectangle" fill="#A2F5D0" x="25" y="39" width="36" height="5" rx="2.5"></rect>
        </g>
    </g>
</svg>
